X:1
T:Title
%%score ( 1 2 ) ( 3 4 )
L:1/8
Q:1/4=95
M:3/4
K:C
V:1 treble nm="Grand Piano, Soprano"
V:2 treble 
V:3 bass nm="Choir Pad, The Jugment Day (Knapp)"
V:4 bass 
V:1
 [CE]>[DF] [EG]3 [EG] | [FA]>[EG] [EG] [Ec]3 | [CE]>[DF] [EG]3 [EG] | [DF]>[CE] [B,D]4 | %4
w: By~R.~E.~McNeill * * *||||
 [CE]>[DF] [EG]3 [EG] | [FA]>[EG] G c3 | [Ec]>[Ec] [DB]>[Ec] [Fd]2 | [FB]2 [Ec]4 | %8
w: ||||
 [Ec]>[GB] [FA]3 [Ac] | [GB]>[FA] [EG] .[Ec]3 | [Ec]>[Ec] [Ec]3 [Ec] | [FB]>[Ec] [Fd]4 | %12
w: ||||
 [FG]>[FG] [Ge]3 [Ge] | [Ec]>[EG] [FA] [Fc]3 | [Fc]>[FA] [EG]3 [Ec] | [DB]>[Fd] [Ec]4 | %16
w: ||||
 [EG]>[EG] [EG]2 [CE]2 | [EG]>[DF] [DF]2 [CE]2 | [EG]>[EG] [Ec] [Ec]3 | [DB]>[Ec] [Fd]4 | %20
w: ||||
 [FG]>[FG] [Ge]3 [Ge] | [Ec]>[EG] [FA] [Fc]3 | [Fc]>[FA] [EG]3 [Ec] | [DB]>[Fd] [Ec]4- | %24
w: ||||
 [Ec]4 z2 |] %25
w: |
V:2
 x6 | x6 | x6 | x6 | x6 | z2 E4 | x6 | x6 | x6 | x6 | x6 | x6 | x6 | x6 | x6 | x6 | x6 | x6 | x6 | %19
 x6 | x6 | x6 | x6 | x6 | x6 |] %25
V:3
 [C,G,]>[C,G,] [C,C]3 [C,C] | [C,C]>[C,C] [C,C] [C,G,]3 | [C,G,]>[C,G,] [C,C]3 [C,C] | %3
 [C,G,]>[C,G,] [G,,G,]4 | [C,G,]>[C,G,] [C,C]3 [C,C] | [C,C]>[C,C] C G,3 | %6
 [C,G,]>[C,G,] [G,,G,]>[G,,G,] [G,,G,]2 | [G,,G,]2 [C,G,]4 | [C,G,]>[E,C] [F,C]3 [F,C] | %9
 [F,C]>[F,C] [C,C] .[C,G,]3 | A,>A, A,3 A, | [G,D]>[G,C] [G,B,]4 | G,>G, [C,C]3 [C,C] | %13
 [C,G,]>[C,C] [F,C] [F,A,]3 | [F,A,]>[F,C] [G,C]3 G, | [G,,G,]>[G,,G,] [C,G,]4 | %16
 [C,C]>[C,C] [C,C]2 [C,G,]2 | [C,G,]>[G,,G,] [G,,G,]2 [C,G,]2 | G,>G, [C,G,] [C,G,]3 | %19
 [G,,G,]>[G,,G,] [G,,G,]4 | G,>G, [C,C]3 [C,C] | [C,G,]>[C,C] [F,C] [F,A,]3 | %22
 [F,A,]>[F,C] [G,C]3 G, | [G,,G,]>[G,,G,] [C,G,]4- | [C,G,]4 z2 |] %25
V:4
 x6 | x6 | x6 | x6 | x6 | z2 C,4 | x6 | x6 | x6 | x6 | x6 | x6 | x6 | x6 | x6 | x6 | x6 | x6 | x6 | %19
 x6 | x6 | x6 | x6 | x6 | x6 |] %25

